packages/tokens/icons/recommendations/size16Px.svg

<svg viewBox="0 0 16 16" fill="none" xmlns="http://www.w3.org/2000/svg" width="1em" height="1em"><path d="M10.3113 10.542L9.69307 9.94503C9.40164 9.66365 9.54829 9.17064 9.94614 9.09429L10.9019 8.91087C11.0614 8.88027 11.1961 8.77412 11.2631 8.6262L11.5446 8.00508C11.722 7.61357 12.278 7.61357 12.4554 8.00508L12.7369 8.6262C12.8039 8.77412 12.9386 8.88027 13.0981 8.91087L14.0539 9.09429C14.4517 9.17064 14.5984 9.66365 14.3069 9.94503L13.6887 10.542C13.5705 10.656 13.5159 10.8209 13.5426 10.9829L13.7074 11.983C13.7753 12.395 13.3382 12.7038 12.9725 12.5021L12.2415 12.0988C12.0912 12.0158 11.9088 12.0158 11.7585 12.0988L11.0275 12.5021C10.6618 12.7038 10.2247 12.395 10.2926 11.983L10.4574 10.9829C10.4841 10.8209 10.4295 10.656 10.3113 10.542Z" stroke="currentColor"/><path d="M2.31131 10.542L1.69307 9.94503C1.40164 9.66365 1.54829 9.17064 1.94614 9.09429L2.90193 8.91087C3.06142 8.88027 3.1961 8.77412 3.26313 8.6262L3.54457 8.00508C3.72198 7.61357 4.27802 7.61357 4.45543 8.00508L4.73687 8.6262C4.8039 8.77412 4.93858 8.88027 5.09807 8.91087L6.05386 9.09429C6.45171 9.17064 6.59836 9.66365 6.30693 9.94503L5.68869 10.542C5.57053 10.656 5.51594 10.8209 5.54264 10.9829L5.70743 11.983C5.77532 12.395 5.33815 12.7038 4.97254 12.5021L4.24154 12.0988C4.0912 12.0158 3.9088 12.0158 3.75846 12.0988L3.02746 12.5021C2.66185 12.7038 2.22468 12.395 2.29257 11.983L2.45736 10.9829C2.48406 10.8209 2.42947 10.656 2.31131 10.542Z" stroke="currentColor"/><path d="M6.31131 4.54195L5.69307 3.94503C5.40164 3.66365 5.54829 3.17064 5.94614 3.09429L6.90193 2.91087C7.06142 2.88027 7.1961 2.77412 7.26313 2.6262L7.54457 2.00508C7.72198 1.61357 8.27802 1.61357 8.45543 2.00508L8.73687 2.6262C8.8039 2.77412 8.93858 2.88027 9.09807 2.91087L10.0539 3.09429C10.4517 3.17064 10.5984 3.66365 10.3069 3.94503L9.68869 4.54195C9.57053 4.65604 9.51594 4.82088 9.54264 4.98294L9.70743 5.98301C9.77532 6.39502 9.33815 6.70381 8.97254 6.50209L8.24154 6.09878C8.0912 6.01583 7.9088 6.01583 7.75846 6.09878L7.02746 6.50209C6.66185 6.70381 6.22468 6.39502 6.29257 5.98301L6.45736 4.98294C6.48406 4.82088 6.42947 4.65604 6.31131 4.54195Z" stroke="currentColor"/></svg>

<svg xmlns="http://www.w3.org/2000/svg" fill="none" viewBox="0 0 16 16" width="1em" height="1em"><path stroke="currentColor" d="m10.311 10.542-.618-.597a.5.5 0 0 1 .253-.85l.956-.184a.5.5 0 0 0 .361-.285l.282-.62a.5.5 0 0 1 .91 0l.282.62a.5.5 0 0 0 .361.285l.956.183a.5.5 0 0 1 .253.851l-.618.597a.5.5 0 0 0-.146.44l.164 1.001a.5.5 0 0 1-.735.52l-.73-.404a.5.5 0 0 0-.484 0l-.73.403a.5.5 0 0 1-.735-.519l.164-1a.5.5 0 0 0-.146-.441Zm-8 0-.618-.597a.5.5 0 0 1 .253-.85l.956-.184a.5.5 0 0 0 .361-.285l.282-.62a.5.5 0 0 1 .91 0l.282.62a.5.5 0 0 0 .361.285l.956.183a.5.5 0 0 1 .253.851l-.618.597a.5.5 0 0 0-.146.44l.164 1.001a.5.5 0 0 1-.734.52l-.731-.404a.5.5 0 0 0-.484 0l-.73.403a.5.5 0 0 1-.735-.519l.164-1a.5.5 0 0 0-.146-.441Zm4-6-.618-.597a.5.5 0 0 1 .253-.85l.956-.184a.5.5 0 0 0 .361-.285l.282-.62a.5.5 0 0 1 .91 0l.282.62a.5.5 0 0 0 .361.285l.956.183a.5.5 0 0 1 .253.851l-.618.597a.5.5 0 0 0-.146.44l.164 1.001a.5.5 0 0 1-.734.52l-.731-.404a.5.5 0 0 0-.484 0l-.73.403a.5.5 0 0 1-.735-.519l.164-1a.5.5 0 0 0-.146-.441Z"/></svg>
